svgs/light/drone-front.svg

<svg xmlns="http://www.w3.org/2000/svg" viewBox="0 0 640 512"><!-- Font Awesome Pro 6.0.0-alpha2 by @fontawesome - https://fontawesome.com License - https://fontawesome.com/license (Commercial License) --><path d="M624 128H512V112C512 103.156 504.844 96 496 96S480 103.156 480 112V128H368C359.164 128 352 135.162 352 144C352 152.836 359.164 160 368 160H480V238.672C446.525 220.494 383.896 192 320 192S193.475 220.494 160 238.672V160H272C280.836 160 288 152.836 288 144C288 135.162 280.836 128 272 128H160V112C160 103.156 152.844 96 144 96S128 103.156 128 112V128H16C7.164 128 0 135.162 0 144C0 152.836 7.164 160 16 160H128V272C128 289.641 142.344 304 160 304H169.402C152.965 333.184 144 366.316 144 400C144 408.844 151.156 416 160 416S176 408.844 176 400C176 365.514 187.463 331.855 207.732 304H226.094L277.594 348.141C280.5 350.641 284.188 352 288 352H352C355.812 352 359.5 350.641 362.406 348.141L413.906 304H432.268C452.537 331.855 464 365.514 464 400C464 408.844 471.156 416 480 416S496 408.844 496 400C496 366.316 487.037 333.184 470.6 304H480C497.656 304 512 289.641 512 272V160H624C632.836 160 640 152.836 640 144C640 135.162 632.836 128 624 128ZM408 272C404.188 272 400.5 273.359 397.594 275.859L346.094 320H293.906L242.406 275.859C239.5 273.359 235.812 272 232 272H166.102C192.996 256.561 257.113 224 320 224S447.004 256.561 473.898 272H408Z"/></svg>

<svg xmlns="http://www.w3.org/2000/svg" viewBox="0 0 640 512"><!--! Font Awesome Pro 6.0.0-alpha3 by @fontawesome - https://fontawesome.com License - https://fontawesome.com/license (Commercial License) --><path d="M624 128H512V112C512 103.2 504.8 96 496 96S480 103.2 480 112V128h-112C359.2 128 352 135.2 352 144C352 152.8 359.2 160 368 160H480v78.67C446.5 220.5 383.9 192 320 192S193.5 220.5 160 238.7V160h112C280.8 160 288 152.8 288 144C288 135.2 280.8 128 272 128H160V112c0-8.844-7.156-15.94-16-15.94S128 103.2 128 112V128H16C7.164 128 0 135.2 0 144C0 152.8 7.164 160 16 160H128v112c0 17.64 14.34 32 32 32h9.402C152.1 333.2 144 366.3 144 400c0 8.844 7.231 16 16.07 16S176 408.8 176 400c0-34.49 11.46-68.14 31.73-96h18.36l51.5 44.14C280.5 350.6 284.2 352 288 352h64c3.812 0 7.5-1.359 10.41-3.859L413.9 304h18.36C452.5 331.9 464 365.5 464 400c0 8.844 7.056 16 15.9 16S496 408.8 496 400c0-33.68-8.963-66.82-25.4-96H480c17.66 0 32-14.36 32-32V160h112C632.8 160 640 152.8 640 144C640 135.2 632.8 128 624 128zM408 272c-3.812 0-7.5 1.359-10.41 3.859L346.1 320H293.9l-51.5-44.14C239.5 273.4 235.8 272 232 272H166.1C192.1 256.6 257.1 224 320 224s127 32.56 153.9 48H408z"/></svg>
